X: 190
T: I Fear Not
C: Teton Sioux band 1911-1914
N: Derived from sioux185.krn
O: South Dakota, U.S.A.
N: Teton Sioux Music by Frances Densmore, 1918
Z: transcribed to **kern format by Craig Sapp
L: 1/8
M: 3/4
Q: 1/4=58
K: F clef=bass
%%linebreak <none>
F G/ D/ F F F D/ D/ [I:setbarnb 1]||  
[M:2/4]D ^CC2 | 
A, A,A,2 ||  
[M:3/4]D> ^C D< D(=C2 ||  
[M:2/4]C) A,- A, G, | 
G, F,F,2 | 
D, D,D,2 | 
G,> F, G,/ G,3/- | 
G, F, F,/ D,/ F, | 
F, D, D, D, | 
D,4 | 
D,4 ||  
[M:3/4]C2A, A,A,2 ||  
[M:2/4]D E F/ D3/ | 
[M:3/4]D C C< A, A,/ G,3/ ||  
[M:2/4]G,< F,F,2 | 
D, D,D,2 | 
G, (G,/ F,/) G,/ F,3/ | 
G, F, (F,/ D,/) F, | 
F,< D,D,2 | 
D,4 | 
D,2z2 |]  



